X:2518
T:Polska från Åland
T:Svenska Folkdansar H3 nr 30
O:Åland
B:Traditioner av Svenska Folkdansar Häfte 3, nr 30
R:Polska
Z:Nils L
U:w=wedge
M:3/4
L:1/16
K:Eb
B2GE B2GE B2GE | E2GA B2c_d c4 | F2DB, F2DB, F2DB, | B,2B2 BAGF G4 |
{F/}E2DE {G/}F2EF {A/}G2FG | A2cB AGFE EDCB, | {F/}E2DE {G/}F2EF {A/}G2FG | A2cB AGFE EDCB, |
(E4 we2)"^f?"ed we2we2 | (E4 wc2)"^d?"c=B wc2wc2 | B,4 D4 F4 | GFED (D4 E4) :|
(:musicend:)
(:music:)
